X:25
T:Ask Our Dan
R:polka
S:Session at Fleadh Ceol in Sligo, 1990
Z:id:hn-polka-25
M:2/4
L:1/8
K:G
GB B/c/B/A/|GB B/c/B/A/|FA A/B/A/G/|FA A/B/A/G/|
GB B/c/B/A/|GB d>g|fd cA|1 G2 GD:|2 G2 G2||
|:g2 g>f|gb ag|fd de|fg a/g/f|g2 g>f|gb ag|fd cA|1 G2 G2:|2 G2 GA||
|:B2 B>c|dB AG|FD DE|FG AG|B2 B>c|dB Ag|fd cA|1 G2 GA:|2 G2 GD||
